X:1
T:Let the Lower Lights Be Burning
T:Philip Paul Bliss, 1871
T:Let the Lower Lights Be Burning
T:Public Domain
T:Public Domain
C:Philip Paul Bliss, 1871
Z:Public Domain
%%score ( 1 2 ) ( 3 4 )
L:1/8
M:3/4
K:Bb
V:1 treble 
V:2 treble 
V:3 bass 
V:4 bass 
V:1
 [DF]>[EG] | [DF]3 [Fd] [Ec][DB] | [FA] [EG]3 [EG]>[EG] | [=Ec]3 [EB] [EA][EB] | %4
w: 1.~Bright- ly|beams our Fa- ther’s|mer- cy from His|light- house ev- er-|
w: 2.~Dark the|night of sin has|set- tled, loud the|an- gry bil- lows|
w: 3.~Trim your|fee- ble lamp, my|bro- ther, some poor|sail- or temp- est|
 (F2 E2) [DF]>[EG] | [DF]3 [DB] [Ec][Fd] | [Ge] [EG]3 [GB]>[Gc] | [Fd]3 [DB] [Ec]>[CA] | [DB]4 || %9
w: more, * But to|He gives the keep-|ing of the lights|a- long the shore.|Let|
w: roar; * Ea- ger|are watch- ing, long-|ing, for the lights,|a- long the shore.|Let|
w: tossed, * Try- ing|to make the har-|bor, in the dark-|ness may be lost.|Let|
"^Refrain" [DB]>[DB] | [Ge]3 [Ge] [Ge]>[Ge] | [Ge] [Fd]3 [Fd]>[Fd] | [=Ed]3 [Ec] [EG]>[Ec] | %13
w: the low-|er lights be burn-|ing! Send a gleam|a- cross the wave!|
w: the low-|er lights be burn-|ing! Send a gleam|a- cross the wave!|
w: the low-|er lights be burn-|ing! Send a gleam|a- cross the wave!|
 (F2 E2) | [DF]>[EG] | [DF]3 [DB] [Ec][Fd] | [Ge] [EG]3 [GB]>[Gc] | [Fd]3 [DB] [Ec]>[CA] | [DB]4 |] %19
w: For *|us He|gives the keep- ing|of the lights a-|long the shore. *||
w: Ea- *|eyes are|watch- ing, long- ing,|for the lights, a-|long the shore. *||
w: Try- *|now to|make the ha- rbor,|some poor sai- lor|may be lost. *||
V:2
 x2 | x6 | x6 | x6 | c4 x2 | x6 | x6 | x6 | x4 || x2 | x6 | x6 | x6 | c4 | x2 | x6 | x6 | x6 | %18
w: ||||us|||||||||to|||||
w: ||||eyes|||||||||ger|||||
w: ||||now|||||||||ing|||||
 x4 |] %19
w: |
w: |
w: |
V:3
 [B,,B,]>[B,,B,] | [B,,B,]3 [B,,B,] [B,,B,][B,,B,] | [E,B,] [E,B,]3 [E,B,]>[E,G,] | %3
 [C,G,]3 [C,C] [C,C][C,B,] | [F,A,]4 [B,,B,]>[B,,B,] | [B,,B,]3 [B,,B,] [B,,B,][B,,B,] | %6
 [E,B,] [E,B,]3 [E,B,]>[E,B,] | [F,B,]3 F, [F,A,]>[F,C] | [B,,B,]4 || B,>B, | %10
 [E,B,]3 [E,B,] [E,B,]>[E,B,] | [B,,B,] [B,,B,]3 B,>B, | [G,C]3 [G,C] [G,C]>[G,B,] | [F,A,]4 | %14
 [B,,B,]>[B,,B,] | [B,,B,]3 [B,,B,] [B,,B,][B,,B,] | [E,B,] [E,B,]3 [E,B,]>[E,B,] | %17
 [F,B,]3 F, [F,A,]>[F,C] | [B,,B,]4 |] %19
V:4
 x2 | x6 | x6 | x6 | x6 | x6 | x6 | x6 | x4 || B,3/2 x/ | x6 | x4 B,>B, | x6 | x4 | x2 | x6 | x6 | %17
 x3 F, x2 | x4 |] %19

